public/assets/common/mask-03.svg

<svg fill="none" height="540" viewBox="0 0 960 540" width="960" xmlns="http://www.w3.org/2000/svg" xmlns:xlink="http://www.w3.org/1999/xlink"><clipPath id="a"><path d="m0 0h960v540h-960z"/></clipPath><g clip-path="url(#a)"><path d="m690 0c-55.505 0-107.095 16.755-150 45.47v-45.47h-225v90h-90v-90h-225v540h540v-45.47c42.905 28.72 94.495 45.47 150 45.47 149.115 0 270-120.885 270-270s-120.885-270-270-270z" fill="#ddd"/></g></svg>

<svg width="960" height="540" viewBox="0 0 960 540" fill="none" xmlns="http://www.w3.org/2000/svg">
<g clip-path="url(#clip0_593_26254)">
<path d="M690 0C634.495 0 582.905 16.755 540 45.47V0H315V90H225V0H0V540H540V494.53C582.905 523.25 634.495 540 690 540C839.115 540 960 419.115 960 270C960 120.885 839.115 0 690 0Z" fill="#DDDDDD"/>
</g>
<defs>
<clipPath id="clip0_593_26254">
<rect width="960" height="540" fill="white"/>
</clipPath>
</defs>
</svg>
